X:1
T:PILARCITA
T:PILARCITA
T:Gavota
T:FERNANDO COBEÑO HEREDIA
C:FERNANDO COBEÑO HEREDIA
%%score { 1 | ( 2 3 ) }
L:1/8
Q:1/4=170
M:4/4
K:Bb
V:1 treble nm="Piano" snm="Pno."
V:2 bass 
V:3 bass 
V:1
"^Tempo di Gavota"!f! ([df]2 b2) | [eb]z[ea] z [ea]z[eg] z | [dg]4!pp! (f2 ed | %3
 f2)!ff! !>![Ff]!>![Gg] !>![Aa]!>![Bb]!>![cc']!>![dd'] | %4
 !>![cc']!>![ff'] !fermata!z2!p! ([df]2 b2) ||"^GAVOTA" [eb]za z [ea]zg z | (!>![dg]4 f)zf z | %7
!<(! [eg]za z [gb]z[gc'] z!<)! | ((!>![dd']4 [cc']2))!p! .b.g | (a4 g)zf z | !>!g6 (!>!d2 | %11
 f)zf z g2 fg | !>!A4 cze z |!<(! [eb]za z [eg]z[ea] z!<)! |!>(! !>![df]4!>)!!pp! [fd']z[fd'] z | %15
 !trill(!!arpeggio!T[fd']2 c'b [ec']z[ec'] z | ([dc']3 g) .[db].f.[db].f | %17
 (!trill(!T[eb]2 a).e .[ca]z.[ca] z | !>![ca]4 .[ec'].d'.b.c' | [fa]2 ab [=eg]2 ga | %20
!<(! (c4 d2 e2 | b)!<)! z!p!!<(! .[ea].[eg] .[ea]2 .[ce]2!<)! | %22
!>(! ([dg]3 f)!>)!!p! .[db].c'._a.b | !>![eg]2 .a._a !>![df]2 .f.g | !>![Be]4 .[=ec'].d'.b.c' | %25
 !>![fa]2 .a.b !>![=eg]2 .g.a | [cf]4!ff! .[=af']._g'.e'.f' | !>![b_d']2 .d'.e' !>!c'2 .c'.d' | %28
 [fb]3 c'{/e'} ._d'.c'.d'.b | a z!p! .[Aa].[Bb] !>![cc']4- | [cc']2 .[Aa].[Bb] !>![cc']4- | %31
 [cc']2 .[Aa].[Bb] !>![cc']2 [cc'][dd'] |!ff! [_e_e'] z z2 z4 | z4!p! ([df]2 b2) || %34
 [eb]za z [ea]zg z | (!>![dg]4 f)zf z |!<(! [eg]za z [gb]z[gc'] z!<)! | %37
 ((!>![dd']4 [cc']2))!p! .b.g | (!>!a4 g)zf z | !>!g6 (!>!d2 | f)zf z g2 fg | !>!A4 cze z | %42
!<(! [eb]za z [eg]z[ea] z!<)! |!>(! !>![df]4!>)!!pp! [fd']z[fd'] z | %44
 !trill(!T[fd']2 c'b [ec']z[ec'] z | ([dc']3 g) .[db].f.[db].f | %46
 (!trill(!T[eb]2 a).e .[ca]z.[ca] z | !>![ca]4 .[ec'].d'.b.c' | [fa]2 ab [=eg]2 ga | %49
!<(! (c4 d2 e2 | b)!<)! z!p!!<(! .[ea].[eg] .[ea]2 .[ce]2!<)! | %51
!>(! !>![dg]3 f!>)!!p! .[db].c'._a.b | !>![eg]2 .a._a !>![df]2 .f.g | !>![Be]4 .[=ec'].d'.b.c' | %54
 !>![f=a]2 .a.b !>![=eg]2 .g.a |!8va(! !>![c'f']4!ff! [=bf']z[bf'] z | %56
 (!trill(!T[c'f']2 =e')c' [a_e']z[ae'] z | (!trill(!T[ae']2 d')[bg']!8va)! [g^c']z[gc'] z | %58
 (!trill(!T[fd']2 c')!p!.b .[_ea].[eb].[ec'].[ed'] | [Bb]4!pp! .[Bb]2 .[cc']2 | %60
 !>![Bb]4 .[Bb]2 .[cc']2 | [Bb]2!<(! .[Bb].[cc'] .[Bb].[cc'] .[Bb].[cc']!<)! | %62
!>(! !fermata![Bb]4!>)!!p! (b2 e'2) ||[K:Eb]"^TRIO" [da]2{/b} [da][dg] ([da]2 [fd']2) | %64
 [eg]3 ^f gb[ae'][gc'] | [ad']2{/e'} [ad']^c' d'2 [da]2 | [ec']2{/c'} b=a"_rall." (b2 e'2) | %67
 [da]2{/b} [da][dg] ([da]2 [fd']2) | ([eg]3 ^f!<(! g).a.[gb].[gc']!<)! | %69
!>(! .[gd'].[ge'].[gd'].[ge'] .[^fb].[fc'].[f=a].[fb]!>)! | [dg]2!f! [Bb][cc']!>(! [Bb]4- | %71
 [Bb]4!>)! ([Bb]2 [ee']2) | [da]2{/b} [da][dg] ([da]2 [fd']2) | [eg]3 ^f gb[ae'][gc'] | %74
 [ad']2{/e'} [ad']^c' d'2 [da]2 | [ec']2{/c'} b=a"_rall." (b2 e'2) | %76
 [da]2{/b} [da][dg] ([da]2 [fd']2) | ([eg]3 ^f!<(! g).a.[gb].[gc']!<)! | %78
!>(! .[gd'].[ge'].[gd'].[ge'] .[^fb].[fc'].[f=a].[fb]!>)! | [dg]4 .[Ff].[=E=e].[Ff].[Gg] |: %80
 .[Aa].[Gg].[Aa].[Bb] .[cc'].[Bb].[cc'].[dd'] | (!>![ff']3 [ee'])!p! .[gd'].e'.[ac'].e' | %82
 [da]2{/b} [da][dg] ([da]2 [fe']2) | [eg]4!p! .[Ff].[=E=e].[Ff].[Gg] | %84
 .[Aa].[Gg].[Aa].[Bb] .[cc'].[dd'].[ee'].[ff'] | (!>![aa']3 [gg']) ([gd'][gf']).[ae'].[ac'] | %86
 ([gb][ge']).[fb].[fa] .[eg]2 .[df]2 |1 .[Be]2 z2!p! .[Ff].[=E=e].[Ff].[Gg] :|2 %88
 [Be]2 z2 ([df]2 b2) ||"^CODA" [eb]z=a z [ea]zg z | %90
 .[dg].[Ff].[Gg].[=A=a] .[Bb].[cc'].[dd'].[ee'] | .[ff'] z z2 z2!ff! !>![Acef]2 | %92
 !>![Bdb] !>!B, z2 z4 |] %93
V:2
 z4 | C,2 [A,E]2 F,2 [A,E]2 | B,,2 [B,D]2[K:treble] [EA]z[D^G] z | %3
 [EA]2[K:bass] !>![E,E]2 !>![C,C]2 !>![A,,A,]2 | !>![F,,F,]!>![F,,F,] !fermata!z2 z4 || %5
 .C,2 .[A,E]2 .F,2 .[A,E]2 | B,,2 .[F,B,]2 .[B,D]2 [D,,D,]2 | [E,,E,]2 [G,C]2 [C,,C,]2 [G,C]2 | %8
 [F,,F,]2 .[B,D]2 .[CE]2 !>![=E,B,C]2 | .[F,A,C]2 .A,.C .E2 [F,,C,E,F,]2 | %10
 .B,,.D,.F,.B, .D2 [F,,F,]2 | C,2 [F,A,E]2 =B,,2 [F,G,D]2 | C,2 .E,.F, C2 [F,,F,]2 | %13
 C,2 [A,E]2 F,2 [A,E]2 | [B,D]2 [B,,,B,,]2 z2 z2 | C,2 [B,D]2 F,2 [A,E]2 | %16
"_A. Sallés y Amat. Editores. Manresa." [B,D](CDE [B,DF]2) .[D,,D,]2 | %17
 .[C,,C,]2 [G,C]2 [F,,F,]2 [G,C]2 | [C,,C,]2 [F,A,E]2 z2 z2 | C,2 [F,A,C]2 B,,2 [=E,G,C]2 | %20
 A,,2 ([F,A,E]2 [F,^G,D]2 [F,A,E]2) | C,2 [A,E]2 F,2 [A,E]2 | B,,2 [B,D]2 .[F,,F,]2 .[B,,,B,,]2 | %23
 [E,,E,]2 [G,B,]2"^cresc." [B,,,B,,]2 [_A,B,]2 | [E,,E,]2 [G,B,E]2 [G,,G,]2 [C,,C,]2 | %25
 [F,,F,]2 [A,C]2 [C,,C,]2 [B,C]2 | [F,,F,]2 [A,CF]2 [C,C]2 [F,,F,]2 | %27
 [B,,B,]2 [_DF]2 [F,,F,]2 [EF]2 | [B,_DF]2 [_G,,_G,]2 [F,,F,]2 [=E,,=E,]2 | %29
 [F,,F,] z z2 z2 .[_G,B,C=E]2 | .[F,=A,CF]2"^cresc." z2 z2 .[_G,B,C=E]2 | %31
 .[F,=A,CF]2 !>![F,A,CF]4 [F,=A,CF]2 | (!///-!F,4 F4 | !///-!F, F) [F,A,F] z z4 || %34
 .C,2 .[A,E]2 .F,2 .[A,E]2 | B,,2 .[F,B,]2 .[B,D]2 [D,,D,]2 | [E,,E,]2 [G,C]2 [C,,C,]2 [G,C]2 | %37
 [F,,F,]2 .[B,D]2 .[CE]2 !>![=E,B,C]2 | .[F,A,C]2 .A,.C .E2 [F,,C,E,F,]2 | %39
 .B,,.D,.F,.B, .D2 [F,,F,]2 | C,2 [F,A,E]2 =B,,2 [F,G,D]2 | C,2 .E,.F, C2 [F,,F,]2 | %42
 C,2 [A,E]2 F,2 [A,E]2 | [B,D]2 [B,,,B,,]2 z2 z2 | C,2 [B,D]2 F,2 [A,E]2 | %45
 [B,D](CDE [B,DF]2) .[D,,D,]2 | .[C,,C,]2 [G,C]2 [F,,F,]2 [G,C]2 | [C,,C,]2 [F,A,E]2 z2 z2 | %48
 C,2 [F,A,C]2 B,,2 [=E,G,C]2 | A,,2 ([F,A,E]2 [F,^G,D]2 [F,A,E]2) | C,2 [A,E]2 F,2 [A,E]2 | %51
 B,,2 [B,D]2 .[F,,F,]2 .[B,,,B,,]2 | [E,,E,]2 [G,B,]2"^cresc." [B,,,B,,]2 [_A,B,]2 | %53
 [E,,E,]2 [G,B,E]2 [G,,G,]2 [C,,C,]2 | [F,,F,]2 [A,C]2 [C,,C,]2 [B,C]2 | %55
 [F,,F,]2 [A,CF]2 !>![G,,G,]2 [=B,DF]2 |"^dim." [C,,C,]2 [G,C=E]2 [F,,F,]2 [A,C_E]2 | %57
 [B,,,B,,]2 [F,B,D]2 z2 [G,B,^C]2 | [F,,F,]2 [B,D]2 [F,,F,]2 [A,C]2 | %59
 !arpeggio![B,,B,D]2 [B,,,B,,]2 z2 z2 | [B,,D,F,B,]2 z2"^cresc." z4 | %61
 [B,,D,F,B,]2 z2[K:treble] [B,D_A]2 [B,^CG]2 | !fermata![B,D_A]4[K:bass] z2"^rall." z2 || %63
[K:Eb]"^a tempo" F,2 [A,B,]2 B,,2 [A,B,]2 | E,2 [G,B,]2 [B,E]2 [A,C]2 | F,2 [A,B,]2 B,,2 [A,B,]2 | %66
 E,2 E,,2 z2 z2 | F,2 [A,B,]2 B,,2 [A,B,]2 | E,2 [G,B,]2 E,2 [G,B,]2 | D,2 [G,B,]2 D,2 [^F,C]2 | %70
 [G,B,]2 z2[K:treble] z2 [B,=EG]2 | [B,F_A]2"^rall." z2 z4 | %72
[K:bass]"^a tempo" F,2 [A,B,]2 B,,2 [A,B,]2 | E,2 [G,B,]2 [B,E]2 [A,C]2 | %74
 F,2 [A,B,]2 B,,2 [A,B,]2 | E,2 E,,2 z2 z2 | F,2 [A,B,]2 B,,2 [A,B,]2 | E,2 [G,B,]2 E,2 [G,B,]2 | %78
 D,2 [G,B,]2 D,2 [^F,C]2 | [G,B,]2 [G,,,G,,]2 z2 z2 |: F,2"^cresc." [A,B,D]2 B,,2 [A,B,D]2 | %81
 !>!E,2 .[G,B,]2 .[CE]2 .[A,C]2 | F,2 [A,B,D]2 B,,2 [A,B,D]2 | [E,,E,]2 [E,G,B,E]2 !>![F,A,C]4 | %84
 [E,E]2 [D,D][C,C] [B,,B,][A,,A,][G,,G,][F,,F,] | %85
 !arpeggio!!>![=B,,D,F,G,=B,]4 [C,E,G,C]2 [A,,C,E,A,]2 | [B,,B,]2 .[A,B,D]2 .[G,B,E]2 [B,,D,A,]2 |1 %87
 [E,G,]2 [E,,E,]2 z2 z2 :|2"^D.C. al" [E,G,]2 [E,,E,]2 z2 z2 || C,2 [=A,E]2 F,2 [A,E]2 | %90
 .[B,,F,B,].[F,F].[E,E].[D,D] .[C,C].[B,,B,].[A,,A,].[G,,G,] | .[F,,F,] z z2 z2 !>![F,A,E]2 | %92
 !>![B,D] !>![B,,,B,,] z2 z4 |] %93
V:3
 x4 | x8 | x4[K:treble] x4 | x2[K:bass] x6 | x8 || x8 | x8 | x8 | x8 | x8 | x8 | x8 | x8 | x8 | %14
 x8 | x8 | x8 | x8 | x8 | x8 | x8 | x8 | x8 | x8 | x8 | x8 | x8 | x8 | x8 | x8 | x8 | x8 | x8 | %33
 x8 || x8 | x8 | x8 | x8 | x8 | x8 | x8 | x8 | x8 | x8 | x8 | x8 | x8 | x8 | x8 | x8 | x8 | x8 | %52
 x8 | x8 | x8 | x8 | x8 | x4 =E,4 | x8 | x8 | x8 | x4[K:treble] x4 | x4[K:bass] x4 ||[K:Eb] x8 | %64
 x8 | x8 | x8 | x8 | x8 | x8 | x4[K:treble] x4 | x8 |[K:bass] x8 | x8 | x8 | x8 | x8 | x8 | x8 | %79
 x8 |: x8 | x8 | x8 | x8 | x8 | x8 | x8 |1 x8 :|2 x8 || x8 | x8 | x8 | x8 |] %93

